assets/images/svg/svg-chevron-left.svg

<svg width="12" height="20" viewBox="0 0 12 20" fill="none" xmlns="http://www.w3.org/2000/svg">
<path d="M1.5 10L0.792893 9.29289L0.0857864 10L0.792893 10.7071L1.5 10ZM9.79289 0.292893L0.792893 9.29289L2.20711 10.7071L11.2071 1.70711L9.79289 0.292893ZM0.792893 10.7071L9.79289 19.7071L11.2071 18.2929L2.20711 9.29289L0.792893 10.7071Z" fill="white"/>
</svg>

<svg width="12" height="20" fill="none" xmlns="http://www.w3.org/2000/svg">
  <path d="m1.5 10-.707-.707L.086 10l.707.707L1.5 10ZM9.793.293l-9 9 1.414 1.414 9-9L9.793.293Zm-9 10.414 9 9 1.414-1.414-9-9-1.414 1.414Z" fill="#fff"/>
</svg>
